package/converter/svg/solid/circle-left.svg

<svg xmlns="http://www.w3.org/2000/svg" viewBox="0 0 512 512"><!-- Font Awesome Pro 6.0.0-alpha2 by @fontawesome - https://fontawesome.com License - https://fontawesome.com/license (Commercial License) --><path d="M16 256C16 388.58 123.42 496 256 496S496 388.58 496 256C496 123.418 388.58 16 256 16S16 123.418 16 256ZM246.125 129.219C252.109 131.688 256 137.531 256 144V208H352C369.673 208 384 222.327 384 240V272C384 289.673 369.673 304 352 304H256V368C256 374.469 252.109 380.312 246.125 382.781C240.141 385.266 233.266 383.891 228.687 379.313L116.687 267.313C110.44 261.065 110.44 250.935 116.687 244.688L228.687 132.688C233.266 128.109 240.141 126.734 246.125 129.219Z"/></svg>

<svg xmlns="http://www.w3.org/2000/svg" viewBox="0 0 512 512"><!--! Font Awesome Pro 6.6.0 by @fontawesome - https://fontawesome.com License - https://fontawesome.com/license (Commercial License) Copyright 2024 Fonticons, Inc. --><path d="M512 256A256 256 0 1 0 0 256a256 256 0 1 0 512 0zM116.7 244.7l112-112c4.6-4.6 11.5-5.9 17.4-3.5s9.9 8.3 9.9 14.8l0 64 96 0c17.7 0 32 14.3 32 32l0 32c0 17.7-14.3 32-32 32l-96 0 0 64c0 6.5-3.9 12.3-9.9 14.8s-12.9 1.1-17.4-3.5l-112-112c-6.2-6.2-6.2-16.4 0-22.6z"/></svg>
